images/sora-xor.svg

<svg height="250" viewBox="0 0 250 250" width="250" xmlns="http://www.w3.org/2000/svg"><path d="m250 125c0 69.027344-55.972656 125-125 125s-125-55.972656-125-125 55.972656-125 125-125 125 55.972656 125 125zm0 0" fill="#fff"/><path d="m125 146.320312 59.515625 88.679688c-17.710937 9.515625-37.988281 15-59.515625 15s-41.804688-5.484375-59.515625-15.070312zm0-146.320312c-69.027344 0-125 55.972656-125 125 0 40.140625 18.890625 75.832031 48.332031 98.75l66.390625-98.890625h-66.113281v-20.484375h66.183594v-21.109375h-66.183594v-20.625h152.78125v20.484375h-66.113281v21.109375h66.113281v20.488281h-66.113281l66.390625 98.886719c29.441406-22.777344 48.332031-58.46875 48.332031-98.609375 0-69.027344-55.972656-125-125-125zm0 0" fill="#e23"/></svg>

<svg xmlns="http://www.w3.org/2000/svg" width="250" height="250"><path fill="#fff" d="M250 125c0 69.027-55.973 125-125 125S0 194.027 0 125 55.973 0 125 0s125 55.973 125 125zm0 0"/><path fill="#e23" d="M125 146.32 184.516 235c-17.711 9.516-37.989 15-59.516 15s-41.805-5.484-59.516-15.07zM125 0C55.973 0 0 55.973 0 125c0 40.14 18.89 75.832 48.332 98.75l66.39-98.89H48.61v-20.485h66.184v-21.11H48.609V62.642h152.782v20.484h-66.114v21.11h66.114v20.488h-66.114l66.391 98.886C231.109 200.832 250 165.141 250 125 250 55.973 194.027 0 125 0zm0 0"/></svg>
